X:1
T:Ymdaith Gyflym Cyfeiliog
L:1/8
Q:1/8=120
M:2/2
I:linebreak $
K:D
V:1 treble 
V:1
 d/f/a/f/ dA | Bg g2 | fg/e/ dc | d/c/d/e/ dA | d/f/a/f/ dA | Bg g2 | fg/e/ dc |{c} d4!fine! :|$ %8
 Ad dc |{c} B4 | Be ed |{d} c3 d | ec Ae | fd Af | e/f/e/d/ c/d/c/B/ |{B} A4!D.C.! :| %16
